Papirus/16x16/places/folder-steam.svg

<?xml version="1.0" encoding="UTF-8" standalone="no"?>
<!--Created with Inkscape (http://www.inkscape.org/)-->

<svg
   xmlns:dc="http://purl.org/dc/elements/1.1/"
   xmlns:cc="http://creativecommons.org/ns#"
   xmlns:rdf="http://www.w3.org/1999/02/22-rdf-syntax-ns#"
   xmlns:svg="http://www.w3.org/2000/svg"
   xmlns="http://www.w3.org/2000/svg"
   xmlns:sodipodi="http://sodipodi.sourceforge.net/DTD/sodipodi-0.dtd"
   xmlns:inkscape="http://www.inkscape.org/namespaces/inkscape"
   id="svg2403"
   height="16"
   width="16"
   version="1.0"
   inkscape:version="0.91 r13725"
   sodipodi:docname="folder-steam.svg">
  <defs
     id="defs8" />
  <sodipodi:namedview
     pagecolor="#ffffff"
     bordercolor="#666666"
     borderopacity="1"
     objecttolerance="10"
     gridtolerance="10"
     guidetolerance="10"
     inkscape:pageopacity="0"
     inkscape:pageshadow="2"
     inkscape:window-width="1600"
     inkscape:window-height="843"
     id="namedview6"
     showgrid="false"
     inkscape:zoom="14.75"
     inkscape:cx="8"
     inkscape:cy="8"
     inkscape:window-x="0"
     inkscape:window-y="0"
     inkscape:window-maximized="1"
     inkscape:current-layer="svg2403" />
  <metadata
     id="metadata15">
    <rdf:RDF>
      <cc:Work
         rdf:about="">
        <dc:format>image/svg+xml</dc:format>
        <dc:type
           rdf:resource="http://purl.org/dc/dcmitype/StillImage" />
        <dc:title />
      </cc:Work>
    </rdf:RDF>
  </metadata>
  <path
     style="opacity:1;fill:#5c616c;fill-opacity:1"
     inkscape:connector-curvature="0"
     d="m 12.479126,2.999965 c -1.338008,0 -2.5018151,0.7245993 -3.0981188,1.8007982 0,0 -0.9652059,1.9029981 -1.6993103,2.6639973 C 7.3483948,7.8103602 6.7631913,8.1660598 6.390689,8.3866596 l 1.3809084,0.8046992 c 0.0675,0.0391 0.1251008,0.0856 0.1836011,0.1327999 0.014,0.0114 0.0314,0.0175 0.0449,0.0293 0.4264026,0.2901998 0.7129043,0.7764994 0.7129043,1.3244984 0,0.886999 -0.7332044,1.606999 -1.6387099,1.606999 -0.486803,0 -0.9146056,-0.22 -1.2148075,-0.551 L 4.752079,11.095957 c 0.2029012,1.079999 1.1618071,1.903998 2.3222142,1.903998 0.5761035,0 1.0914066,-0.216 1.5020091,-0.550999 l 0.0156,0.016 0.1523009,-0.149 c 0,0 1.141207,-1.384999 1.9119117,-1.815998 0.716004,-0.4 2.383015,-0.6405999 2.383015,-0.6405999 0.284001,-0.0443 0.548003,-0.1162998 0.805004,-0.2226997 l 0.123001,-0.0293 -0.016,-0.0156 c 1.209007,-0.5466994 2.049013,-1.7475982 2.049013,-3.1386969 0,-1.906698 -1.57601,-3.4530965 -3.521022,-3.4530965 z m 0,1.0722989 c 1.341008,0 2.427015,1.065899 2.427015,2.3807976 0,1.3149987 -1.086007,2.3808977 -2.427015,2.3808977 -1.342008,0 -2.430015,-1.065899 -2.430015,-2.3808977 0,-1.3148986 1.088007,-2.3807976 2.430015,-2.3807976 z m 0,0.4452996 a 1.973412,1.9344981 0 0 0 -1.975012,1.935498 1.973412,1.9344981 0 0 0 1.975012,1.9335981 1.973412,1.9344981 0 0 0 1.972012,-1.9335981 1.973412,1.9344981 0 0 0 -1.972012,-1.935498 z M 0.45505278,5.1425629 C 0.16697102,6.018462 0.00778005,6.957661 -3.0000488e-5,7.9257601 L 6.3008084,11.720956 c 0.6698041,0.388 1.5157093,0.184 1.8965116,-0.447999 0.3807023,-0.631 0.1542009,-1.4415988 -0.5157031,-1.8295984 L 0.71287435,5.2616627 c -0.0837405,-0.0485 -0.16985104,-0.0886 -0.25782157,-0.1190998 z"
     id="path3883" />
</svg>

<?xml version="1.0" encoding="UTF-8" standalone="no"?>
<svg xmlns="http://www.w3.org/2000/svg" viewBox="0 0 16 16">
  <defs>
    <style type="text/css" id="current-color-scheme">
      .ColorScheme-Text {
        color:#000000;
      }
      </style>
  </defs>
  <path 
     style="fill:currentColor;opacity:1"
     class="ColorScheme-Text"
     d="M 12.478516 3 C 11.140507 3 9.977163 3.7245823 9.3808594 4.8007812 C 9.3808594 4.8007812 8.4157451 6.7038445 7.6816406 7.4648438 C 7.3483386 7.8104434 6.7631273 8.166119 6.390625 8.3867188 L 7.7714844 9.1914062 C 7.8389848 9.2305062 7.8965778 9.2770188 7.9550781 9.3242188 C 7.9690782 9.3356187 7.9864999 9.3417156 8 9.3535156 C 8.4264026 9.6437153 8.7128906 10.129735 8.7128906 10.677734 C 8.7128906 11.564733 7.9797243 12.285156 7.0742188 12.285156 C 6.5874158 12.285156 6.1595768 12.065375 5.859375 11.734375 L 4.7519531 11.095703 C 4.9548544 12.175702 5.9138116 13 7.0742188 13 C 7.6503223 13 8.1655694 12.784218 8.5761719 12.449219 L 8.5917969 12.464844 L 8.7441406 12.316406 C 8.7441406 12.316406 9.8855453 10.931 10.65625 10.5 C 11.372254 10.1 13.039062 9.859375 13.039062 9.859375 C 13.323064 9.815075 13.586748 9.7431186 13.84375 9.6367188 L 13.966797 9.6074219 L 13.951172 9.5917969 C 15.160179 9.0450974 16 7.8442236 16 6.453125 C 16 4.5464269 14.423528 3 12.478516 3 z M 12.478516 4.0722656 C 13.819524 4.0722656 14.90625 5.1382263 14.90625 6.453125 C 14.90625 7.7681237 13.819524 8.8339844 12.478516 8.8339844 C 11.136507 8.8339844 10.048828 7.7681237 10.048828 6.453125 C 10.048828 5.1382263 11.136507 4.0722656 12.478516 4.0722656 z M 12.478516 4.5175781 A 1.9734121 1.9344981 0 0 0 10.503906 6.453125 A 1.9734121 1.9344981 0 0 0 12.478516 8.3867188 A 1.9734121 1.9344981 0 0 0 14.451172 6.453125 A 1.9734121 1.9344981 0 0 0 12.478516 4.5175781 z M 0.45507812 5.1425781 C 0.16699636 6.0184772 0.0078100478 6.9576822 0 7.9257812 L 6.3007812 11.720703 C 6.9705854 12.108703 7.8164633 11.905437 8.1972656 11.273438 C 8.577968 10.642438 8.3515447 9.831359 7.6816406 9.4433594 L 0.71289062 5.2617188 C 0.62915011 5.2132188 0.54304866 5.1730781 0.45507812 5.1425781 z "
      />
</svg>
